src/images_karasa_jaga_svg/sd/cmd/transition-random-bars.svg

<svg height="32" viewBox="0 0 32 32" width="32" xmlns="http://www.w3.org/2000/svg" xmlns:xlink="http://www.w3.org/1999/xlink"><radialGradient id="a" cx="100.88867" cy="155.99673" gradientTransform="matrix(4.3885832 0 0 3.8888885 -340.15832 -521.43169)" gradientUnits="userSpaceOnUse" r="40"><stop offset="0" stop-color="#fff"/><stop offset=".11366145" stop-color="#bdbebf"/><stop offset=".20296688" stop-color="#ececec"/><stop offset=".2363" stop-color="#fafafa"/><stop offset=".38818121" stop-color="#fff"/><stop offset=".5313" stop-color="#fafafa"/><stop offset=".8449" stop-color="#ebecec"/><stop offset="1" stop-color="#e1e2e3"/></radialGradient><filter id="b" color-interpolation-filters="sRGB" height="1.065877" width="1.055085" x="-.027543" y="-.032939"><feGaussianBlur stdDeviation="1.3760599"/></filter><linearGradient id="c" gradientUnits="userSpaceOnUse" x1="67.903954" x2="67.903954" y1="31.783545" y2="-32.216457"><stop offset="0" stop-color="#e9eaea"/><stop offset=".5" stop-color="#fff"/><stop offset="1" stop-color="#fefefe"/></linearGradient><radialGradient id="d" cx="15.803572" cy="27.911764" gradientTransform="matrix(1.2444444 .00000003 -.00000002 .75555556 -3.666666 3.911111)" gradientUnits="userSpaceOnUse" r="11.25"><stop offset="0" stop-color="#ffea00"/><stop offset="1" stop-color="#ffa000"/></radialGradient><linearGradient id="e" gradientUnits="userSpaceOnUse" x1="8" x2="7.953124" y1="4" y2="16.986109"><stop offset="0" stop-color="#fff"/><stop offset="1" stop-color="#fff" stop-opacity="0"/></linearGradient><filter id="f" height="1.294962" width="1.106002" x="-.053001" y="-.147481"><feGaussianBlur stdDeviation="1.4133574"/></filter><filter id="g" color-interpolation-filters="sRGB" height="1.157082" width="1.097082" x="-.048541" y="-.078541"><feGaussianBlur stdDeviation="1.5708204"/></filter><radialGradient id="h" cx="67.903953" cy="-.216458" gradientTransform="matrix(1 0 0 .65183454 0 -.075363)" gradientUnits="userSpaceOnUse" r="42.602785"><stop offset="0" stop-color="#fff"/><stop offset=".75112468" stop-color="#e7e7e7" stop-opacity=".498039"/><stop offset="1" stop-color="#fff" stop-opacity="0"/></radialGradient><g transform="matrix(.25 0 0 .25 -.975989 16.054114)"><ellipse cx="67.903954" cy="-.216456" fill="url(#h)" filter="url(#g)" rx="38.832817" ry="24"/><path d="m91.808594-48.839841h-.002l-76.810547.240235c-4.577647.0022-8.2824795 3.747105-8.2832034 8.318359l-.0129652 81.874107c-.0007241 4.572585 3.7145276 8.287109 8.2871096 8.287109.0013.000002.0026.000002.0039 0l105.902392-.263671c4.57258 0 8.28711-3.714526 8.28711-8.28711l-.002-13.640625.013-47.90536.002-20.328125c0-4.572582-3.70762-8.318359-8.28711-8.318359z" fill="#141414" filter="url(#b)"/><path d="m14.625-48c-3.66801.012514-6.625 2.956969-6.625 6.625l-.096045 33.158544.08308 49.496816c.00616 3.668025 2.95698 6.634065 6.625 6.625l49.29192-.121816 57.364325-.141515c3.66802-.009 6.62443-2.95697 6.625-6.625l.013-82.65536c.00058-3.668031-2.95697-6.625-6.625-6.625h-9.375-8-12.096075z" fill="#fff"/><path d="m115.69727-44.224609-15.58008.0078-85.857424.255859c-1.278069.0038-2.220507.943724-2.220704 2.210938l-.01296 83.40536c-.000197 1.267223.944877 2.214022 2.203126 2.210938l107.406242-.26366c1.27618-.0031 2.21856-.943712 2.21875-2.210938l.013-83.40536c.0002-1.267225-.94371-2.210937-2.21094-2.210937z" fill="url(#a)"/><rect fill="#8c8c8c" height="72" rx="3.999999" ry="4.000001" width="104" x="15.903955" y="-36.216457"/><rect fill="url(#c)" height="68" rx="3.999999" ry="4.000001" width="100" x="17.903955" y="-34.216457"/><path d="m4.5 7.5c-.5539998 0-1 .4459998-1 1v15c0 .554.4460002 1 1 1h1.5v-17zm3.5 0v17h1v-17zm2 0v17h1v-17zm2 0v17h3v-17zm4 0v17h2v-17zm4 0v17h1v-17zm4 0v17h1v-17zm2 0v17h1.5c.186367 0 .350945-.064267.5-.152344v-16.6953122c-.149055-.0880769-.313633-.1523438-.5-.1523438z" fill="url(#d)" transform="matrix(4 0 0 4 3.903955 -64.216456)"/><path d="m4.4316406 7.5136719c-.4542112.0320493-.8084261.3602286-.8945312.796875l.4628906 9.6894531c.7733136.085318 1.3517705.171201 2 .257812v-10.7441401zm3.5683594 0v11.0195311c.3585951.055394.6763808.105763 1 .158203v-11.1777341zm2 0v11.3378901c.359399.058667.670355.097936 1 .148438v-11.4863281zm2 0v11.6347661c.980979.125608 1.928166.195349 3 .173828v-11.8085941zm4 0v11.7617191c.605508-.040227 1.260545-.104701 2-.203125v-11.5585941zm4 0v11.2382811c.300194-.051382.675298-.125886 1-.185547v-11.0527341zm4 0v10.4687501c.298912-.062646.683491-.150853 1-.21875v-10.2500001zm2 0v10.0312501c.669772-.146562 1.251388-.266517 2-.435547v-9.4492188c-.130258-.0764371-.271466-.1351824-.431641-.1464843z" fill="url(#e)" filter="url(#f)" transform="matrix(4 0 0 4 3.903955 -64.216456)"/></g></svg>

<?xml version="1.0" encoding="UTF-8" standalone="no"?>
<!-- Created with Inkscape (http://www.inkscape.org/) -->

<svg
   xmlns:dc="http://purl.org/dc/elements/1.1/"
   xmlns:cc="http://creativecommons.org/ns#"
   xmlns:rdf="http://www.w3.org/1999/02/22-rdf-syntax-ns#"
   xmlns:svg="http://www.w3.org/2000/svg"
   xmlns="http://www.w3.org/2000/svg"
   xmlns:xlink="http://www.w3.org/1999/xlink"
   xmlns:sodipodi="http://sodipodi.sourceforge.net/DTD/sodipodi-0.dtd"
   xmlns:inkscape="http://www.inkscape.org/namespaces/inkscape"
   version="1.1"
   id="svg2"
   width="32"
   height="32"
   viewBox="0 0 32 32"
   sodipodi:docname="transition-random-bars.svg"
   inkscape:version="0.92.3 (unknown)"
   inkscape:export-filename="/home/rizmut/Dokumen/Rizmut/Github/libreoffice-style-karasa-jaga/build/images_karasa_jaga/sd/cmd/transition-random-bars.png"
   inkscape:export-xdpi="96"
   inkscape:export-ydpi="96">
  <metadata
     id="metadata8">
    <rdf:RDF>
      <cc:Work
         rdf:about="">
        <dc:format>image/svg+xml</dc:format>
        <dc:type
           rdf:resource="http://purl.org/dc/dcmitype/StillImage" />
        <dc:title></dc:title>
      </cc:Work>
    </rdf:RDF>
  </metadata>
  <defs
     id="defs6">
    <linearGradient
       inkscape:collect="always"
       id="linearGradient1205">
      <stop
         style="stop-color:#ffffff;stop-opacity:1"
         offset="0"
         id="stop1201" />
      <stop
         id="stop1209"
         offset="0.75112468"
         style="stop-color:#e7e7e7;stop-opacity:0.49803922" />
      <stop
         style="stop-color:#ffffff;stop-opacity:0"
         offset="1"
         id="stop1203" />
    </linearGradient>
    <linearGradient
       inkscape:collect="always"
       id="linearGradient2334">
      <stop
         style="stop-color:#e9eaea;stop-opacity:1;"
         offset="0"
         id="stop2330" />
      <stop
         id="stop2338"
         offset="0.5"
         style="stop-color:#ffffff;stop-opacity:1" />
      <stop
         style="stop-color:#fefefe;stop-opacity:1"
         offset="1"
         id="stop2332" />
    </linearGradient>
    <linearGradient
       y2="0"
       x2="28"
       y1="57.5"
       x1="28"
       gradientUnits="userSpaceOnUse"
       id="linearGradient15967">
      <stop
         id="stop15969"
         style="stop-color:white;stop-opacity:1;"
         offset="0" />
      <stop
         id="stop15971"
         style="stop-color:white;stop-opacity:0;"
         offset="1" />
    </linearGradient>
    <linearGradient
       y2="0"
       x2="28"
       y1="57.5"
       x1="28"
       gradientUnits="userSpaceOnUse"
       id="linearGradient3287">
      <stop
         id="stop3289"
         style="stop-color:#FFEA00"
         offset="0" />
      <stop
         id="stop3291"
         style="stop-color:#ffa000;stop-opacity:1;"
         offset="1" />
    </linearGradient>
    <radialGradient
       inkscape:collect="always"
       xlink:href="#XMLID_8_"
       id="radialGradient3726"
       gradientUnits="userSpaceOnUse"
       gradientTransform="matrix(4.3885832,0,0,3.8888885,-340.15832,-521.43169)"
       cx="100.88867"
       cy="155.99673"
       fx="100.88867"
       fy="155.99673"
       r="40" />
    <radialGradient
       id="XMLID_8_"
       cx="102"
       cy="112.3047"
       r="139.55859"
       gradientUnits="userSpaceOnUse">
      <stop
         offset="0"
         style="stop-color:#ffffff;stop-opacity:1;"
         id="stop37" />
      <stop
         offset="0.11366145"
         style="stop-color:#bdbebf;stop-opacity:1;"
         id="stop41" />
      <stop
         offset="0.20296688"
         style="stop-color:#ECECEC"
         id="stop47" />
      <stop
         offset="0.2363"
         style="stop-color:#FAFAFA"
         id="stop49" />
      <stop
         offset="0.38818121"
         style="stop-color:#FFFFFF"
         id="stop51" />
      <stop
         offset="0.5313"
         style="stop-color:#FAFAFA"
         id="stop53" />
      <stop
         offset="0.8449"
         style="stop-color:#EBECEC"
         id="stop55" />
      <stop
         offset="1"
         style="stop-color:#E1E2E3"
         id="stop57" />
    </radialGradient>
    <clipPath
       clipPathUnits="userSpaceOnUse"
       id="clipPath3826">
      <path
         inkscape:connector-curvature="0"
         style="fill:none;fill-opacity:0.75;fill-rule:evenodd;stroke:#000000;stroke-width:1px;stroke-linecap:butt;stroke-linejoin:miter;stroke-opacity:1"
         d="M 39.881057,36 40,80 H 96 V 36 Z"
         id="path3828"
         sodipodi:nodetypes="ccccc" />
    </clipPath>
    <filter
       inkscape:collect="always"
       style="color-interpolation-filters:sRGB"
       id="filter939"
       x="-0.027542715"
       width="1.0550854"
       y="-0.032938699"
       height="1.0658774">
      <feGaussianBlur
         inkscape:collect="always"
         stdDeviation="1.3760599"
         id="feGaussianBlur941" />
    </filter>
    <linearGradient
       inkscape:collect="always"
       xlink:href="#linearGradient2334"
       id="linearGradient2336"
       x1="67.903954"
       y1="31.783545"
       x2="67.903954"
       y2="-32.216457"
       gradientUnits="userSpaceOnUse" />
    <radialGradient
       inkscape:collect="always"
       xlink:href="#linearGradient3287"
       id="radialGradient901"
       cx="-125.21604"
       cy="-19.496462"
       fx="-125.21604"
       fy="-19.496462"
       r="34.560001"
       gradientTransform="matrix(1,0,0,1.7152778,0,13.945385)"
       gradientUnits="userSpaceOnUse" />
    <radialGradient
       inkscape:collect="always"
       xlink:href="#linearGradient3287"
       id="radialGradient1049"
       cx="15.803572"
       cy="27.911764"
       fx="15.803572"
       fy="27.911764"
       r="11.25"
       gradientTransform="matrix(1.2444444,2.7636806e-8,-1.677949e-8,0.75555556,-3.6666662,3.9111107)"
       gradientUnits="userSpaceOnUse" />
    <linearGradient
       inkscape:collect="always"
       xlink:href="#linearGradient15967"
       id="linearGradient3412"
       gradientUnits="userSpaceOnUse"
       x1="56.278961"
       y1="54.089115"
       x2="56.091454"
       y2="106.03355"
       gradientTransform="matrix(0.25,0,0,0.25,-6.06974,-9.5222785)" />
    <filter
       inkscape:collect="always"
       id="filter3176"
       x="-0.053000905"
       width="1.1060019"
       y="-0.14748077"
       height="1.2949615">
      <feGaussianBlur
         inkscape:collect="always"
         stdDeviation="1.4133574"
         id="feGaussianBlur3178" />
    </filter>
    <filter
       inkscape:collect="always"
       style="color-interpolation-filters:sRGB"
       id="filter1197"
       x="-0.048541019"
       width="1.097082"
       y="-0.078541021"
       height="1.157082">
      <feGaussianBlur
         inkscape:collect="always"
         stdDeviation="1.5708204"
         id="feGaussianBlur1199" />
    </filter>
    <radialGradient
       inkscape:collect="always"
       xlink:href="#linearGradient1205"
       id="radialGradient1207"
       cx="67.903953"
       cy="-0.21645778"
       fx="67.903953"
       fy="-0.21645778"
       r="42.602785"
       gradientTransform="matrix(1,0,0,0.65183454,0,-0.07536312)"
       gradientUnits="userSpaceOnUse" />
    <radialGradient
       inkscape:collect="always"
       xlink:href="#linearGradient1205"
       id="radialGradient1242"
       gradientUnits="userSpaceOnUse"
       gradientTransform="matrix(1,0,0,0.65183454,0,-0.07536312)"
       cx="67.903953"
       cy="-0.21645778"
       fx="67.903953"
       fy="-0.21645778"
       r="42.602785" />
  </defs>
  <sodipodi:namedview
     pagecolor="#ffffff"
     bordercolor="#666666"
     borderopacity="1"
     objecttolerance="10"
     gridtolerance="10"
     guidetolerance="10"
     inkscape:pageopacity="0"
     inkscape:pageshadow="2"
     inkscape:window-width="1366"
     inkscape:window-height="706"
     id="namedview4"
     showgrid="true"
     inkscape:snap-page="true"
     inkscape:snap-global="true"
     inkscape:zoom="8"
     inkscape:cx="0.8655134"
     inkscape:cy="8.3639698"
     inkscape:window-x="0"
     inkscape:window-y="0"
     inkscape:window-maximized="1"
     inkscape:current-layer="g2568"
     inkscape:snap-smooth-nodes="true"
     inkscape:snap-grids="true">
    <inkscape:grid
       type="xygrid"
       id="grid817"
       spacingx="0.5"
       spacingy="0.5"
       empspacing="2" />
  </sodipodi:namedview>
  <g
     id="g915"
     transform="matrix(0.25,0,0,0.25,-0.97598871,16.054114)">
    <g
       id="g2568">
      <ellipse
         ry="24"
         rx="38.832817"
         cy="-0.216456"
         cx="67.903954"
         id="ellipse1211"
         style="opacity:1;fill:url(#radialGradient1207);fill-opacity:1;stroke:none;stroke-width:4;stroke-linecap:square;stroke-linejoin:round;stroke-miterlimit:4;stroke-dasharray:none;stroke-dashoffset:0;stroke-opacity:1;filter:url(#filter1197)" />
      <path
         sodipodi:nodetypes="cccssccccccccc"
         inkscape:connector-curvature="0"
         id="rect3077"
         d="m 91.808594,-48.839841 h -0.002 l -76.810547,0.240235 c -4.577647,0.0022 -8.2824795,3.747105 -8.2832034,8.318359 L 6.6998784,41.59286 c -7.241e-4,4.572585 3.7145276,8.287109 8.2871096,8.287109 0.0013,2e-6 0.0026,2e-6 0.0039,0 L 120.89328,49.616298 c 4.57258,0 8.28711,-3.714526 8.28711,-8.28711 l -0.002,-13.640625 0.013,-47.90536 0.002,-20.328125 c 0,-4.572582 -3.70762,-8.318359 -8.28711,-8.318359 z"
         style="fill:#141414;fill-opacity:1;stroke:none;stroke-width:0.69999999;stroke-linecap:round;stroke-linejoin:round;stroke-miterlimit:4;stroke-dasharray:none;stroke-dashoffset:1.08780003;stroke-opacity:1;filter:url(#filter939)" />
      <path
         sodipodi:nodetypes="sscsscsssscccs"
         inkscape:connector-curvature="0"
         style="fill:#ffffff;fill-opacity:1;stroke:none;stroke-width:0.69999999;stroke-linecap:round;stroke-linejoin:round;stroke-miterlimit:4;stroke-dasharray:none;stroke-dashoffset:1.08780003;stroke-opacity:1"
         d="M 14.625,-48 C 10.95699,-47.987486 8,-45.043031 8,-41.375 L 7.903955,-8.216456 7.987035,41.28036 c 0.00616,3.668025 2.95698,6.634065 6.625,6.625 l 49.29192,-0.121816 57.364325,-0.141515 c 3.66802,-0.009 6.62443,-2.95697 6.625,-6.625 l 0.013,-82.65536 c 5.8e-4,-3.668031 -2.95697,-6.625 -6.625,-6.625 h -9.375 -8 -12.096075 z"
         id="rect2484" />
      <path
         sodipodi:nodetypes="cccssccsssc"
         inkscape:connector-curvature="0"
         id="rect3135"
         d="m 115.69727,-44.224609 -15.58008,0.0078 -85.857424,0.255859 c -1.278069,0.0038 -2.220507,0.943724 -2.220704,2.210938 l -0.01296,83.40536 c -1.97e-4,1.267223 0.944877,2.214022 2.203126,2.210938 L 121.63547,43.602626 c 1.27618,-0.0031 2.21856,-0.943712 2.21875,-2.210938 l 0.013,-83.40536 c 2e-4,-1.267225 -0.94371,-2.210937 -2.21094,-2.210937 z"
         style="fill:url(#radialGradient3726);fill-opacity:1;stroke:none;stroke-width:0.69999999;stroke-linecap:round;stroke-linejoin:round;stroke-miterlimit:4;stroke-dasharray:none;stroke-dashoffset:1.08780003;stroke-opacity:1" />
      <rect
         rx="3.9999988"
         ry="4.0000014"
         y="-36.216457"
         x="15.903955"
         height="72"
         width="104"
         id="rect2326"
         style="opacity:1;fill:#8c8c8c;fill-opacity:1;stroke:none;stroke-width:4;stroke-linecap:square;stroke-linejoin:round;stroke-miterlimit:4;stroke-dasharray:none;stroke-dashoffset:0;stroke-opacity:1" />
      <rect
         style="opacity:1;fill:url(#linearGradient2336);fill-opacity:1;stroke:none;stroke-width:4;stroke-linecap:square;stroke-linejoin:round;stroke-miterlimit:4;stroke-dasharray:none;stroke-dashoffset:0;stroke-opacity:1"
         id="rect2328"
         width="100"
         height="68"
         x="17.903955"
         y="-34.216457"
         ry="4.0000014"
         rx="3.9999988" />
      <path
         style="opacity:1;fill:url(#radialGradient1049);fill-opacity:1;stroke:none;stroke-width:1;stroke-linecap:square;stroke-linejoin:round;stroke-miterlimit:4;stroke-dasharray:none;stroke-dashoffset:0;stroke-opacity:1"
         d="M 4.5 7.5 C 3.9460002 7.5 3.5 7.9459998 3.5 8.5 L 3.5 23.5 C 3.5 24.054 3.9460002 24.5 4.5 24.5 L 6 24.5 L 6 7.5 L 4.5 7.5 z M 8 7.5 L 8 24.5 L 9 24.5 L 9 7.5 L 8 7.5 z M 10 7.5 L 10 24.5 L 11 24.5 L 11 7.5 L 10 7.5 z M 12 7.5 L 12 24.5 L 15 24.5 L 15 7.5 L 12 7.5 z M 16 7.5 L 16 24.5 L 18 24.5 L 18 7.5 L 16 7.5 z M 20 7.5 L 20 24.5 L 21 24.5 L 21 7.5 L 20 7.5 z M 24 7.5 L 24 24.5 L 25 24.5 L 25 7.5 L 24 7.5 z M 26 7.5 L 26 24.5 L 27.5 24.5 C 27.686367 24.5 27.850945 24.435733 28 24.347656 L 28 7.6523438 C 27.850945 7.5642669 27.686367 7.5 27.5 7.5 L 26 7.5 z "
         transform="matrix(4,0,0,4,3.9039548,-64.216456)"
         id="rect1027" />
      <path
         style="fill:url(#linearGradient3412);fill-opacity:1;stroke:none;stroke-width:0.175;stroke-linecap:round;stroke-linejoin:round;stroke-miterlimit:4;stroke-dasharray:none;stroke-dashoffset:1.08780003;stroke-opacity:1;filter:url(#filter3176)"
         clip-path="none"
         d="M 4.4316406 7.5136719 C 3.9774294 7.5457212 3.6232145 7.8739005 3.5371094 8.3105469 L 4 18 C 4.7733136 18.085318 5.3517705 18.171201 6 18.257812 L 6 7.5136719 L 4.4316406 7.5136719 z M 8 7.5136719 L 8 18.533203 C 8.3585951 18.588597 8.6763808 18.638966 9 18.691406 L 9 7.5136719 L 8 7.5136719 z M 10 7.5136719 L 10 18.851562 C 10.359399 18.910229 10.670355 18.949498 11 19 L 11 7.5136719 L 10 7.5136719 z M 12 7.5136719 L 12 19.148438 C 12.980979 19.274046 13.928166 19.343787 15 19.322266 L 15 7.5136719 L 12 7.5136719 z M 16 7.5136719 L 16 19.275391 C 16.605508 19.235164 17.260545 19.17069 18 19.072266 L 18 7.5136719 L 16 7.5136719 z M 20 7.5136719 L 20 18.751953 C 20.300194 18.700571 20.675298 18.626067 21 18.566406 L 21 7.5136719 L 20 7.5136719 z M 24 7.5136719 L 24 17.982422 C 24.298912 17.919776 24.683491 17.831569 25 17.763672 L 25 7.5136719 L 24 7.5136719 z M 26 7.5136719 L 26 17.544922 C 26.669772 17.39836 27.251388 17.278405 28 17.109375 L 28 7.6601562 C 27.869742 7.5837191 27.728534 7.5249738 27.568359 7.5136719 L 26 7.5136719 z "
         transform="matrix(4,0,0,4,3.9039548,-64.216456)"
         id="path3180" />
    </g>
  </g>
</svg>
